src/assets/icons/ico-thumb-documnet.svg

<svg width="24" height="24" viewBox="0 0 24 24" fill="none" xmlns="http://www.w3.org/2000/svg">
<path d="M8.90526 11.0053H3.6C2.44213 11.0053 1.5 10.0631 1.5 8.90526V3.6C1.5 2.44213 2.44213 1.5 3.6 1.5H8.90526C10.0631 1.5 11.0053 2.44213 11.0053 3.6V8.90526C11.0053 10.0631 10.0631 11.0053 8.90526 11.0053ZM3.6 3.04737C3.29539 3.04737 3.04737 3.29539 3.04737 3.6V8.90526C3.04737 9.20987 3.29539 9.45789 3.6 9.45789H8.90526C9.20987 9.45789 9.45789 9.20987 9.45789 8.90526V3.6C9.45789 3.29539 9.20987 3.04737 8.90526 3.04737H3.6Z" fill="#353B45"/>
<path d="M20.3999 11.0053H15.0946C13.9368 11.0053 12.9946 10.0631 12.9946 8.90526V3.6C12.9946 2.44213 13.9368 1.5 15.0946 1.5H20.3999C21.5578 1.5 22.4999 2.44213 22.4999 3.6V8.90526C22.4999 10.0631 21.5578 11.0053 20.3999 11.0053ZM15.0946 3.04737C14.79 3.04737 14.542 3.29539 14.542 3.6V8.90526C14.542 9.20987 14.79 9.45789 15.0946 9.45789H20.3999C20.7045 9.45789 20.9525 9.20987 20.9525 8.90526V3.6C20.9525 3.29539 20.7045 3.04737 20.3999 3.04737H15.0946Z" fill="#353B45"/>
<path d="M8.90526 22.5H3.6C2.44213 22.5 1.5 21.5579 1.5 20.4V15.0948C1.5 13.9369 2.44213 12.9948 3.6 12.9948H8.90526C10.0631 12.9948 11.0053 13.9369 11.0053 15.0948V20.4C11.0053 21.5579 10.0631 22.5 8.90526 22.5ZM3.6 14.5421C3.29539 14.5421 3.04737 14.7901 3.04737 15.0948V20.4C3.04737 20.7046 3.29539 20.9526 3.6 20.9526H8.90526C9.20987 20.9526 9.45789 20.7046 9.45789 20.4V15.0948C9.45789 14.7901 9.20987 14.5421 8.90526 14.5421H3.6Z" fill="#353B45"/>
<path d="M20.3999 22.5H15.0946C13.9368 22.5 12.9946 21.5579 12.9946 20.4V15.0948C12.9946 13.9369 13.9368 12.9948 15.0946 12.9948H20.3999C21.5578 12.9948 22.4999 13.9369 22.4999 15.0948V20.4C22.4999 21.5579 21.5578 22.5 20.3999 22.5ZM15.0946 14.5421C14.79 14.5421 14.542 14.7901 14.542 15.0948V20.4C14.542 20.7046 14.79 20.9526 15.0946 20.9526H20.3999C20.7045 20.9526 20.9525 20.7046 20.9525 20.4V15.0948C20.9525 14.7901 20.7045 14.5421 20.3999 14.5421H15.0946Z" fill="#353B45"/>
</svg>

<svg width="24" height="24" fill="none" xmlns="http://www.w3.org/2000/svg"><path d="M8.9053 11.0053H3.6c-1.1579 0-2.1-.9422-2.1-2.1V3.6c0-1.1579.9421-2.1 2.1-2.1h5.3053c1.1578 0 2.1.9421 2.1 2.1v5.3053c0 1.1578-.9422 2.1-2.1 2.1ZM3.6 3.0473a.5534.5534 0 0 0-.5526.5527v5.3053c0 .3046.248.5526.5526.5526h5.3053a.5534.5534 0 0 0 .5526-.5526V3.6a.5534.5534 0 0 0-.5526-.5526H3.6ZM20.3999 11.0053h-5.3053c-1.1578 0-2.1-.9422-2.1-2.1V3.6c0-1.1579.9422-2.1 2.1-2.1h5.3053c1.1579 0 2.1.9421 2.1 2.1v5.3053c0 1.1578-.9421 2.1-2.1 2.1Zm-5.3053-7.958a.5534.5534 0 0 0-.5526.5527v5.3053c0 .3046.248.5526.5526.5526h5.3053a.5534.5534 0 0 0 .5526-.5526V3.6a.5534.5534 0 0 0-.5526-.5526h-5.3053ZM8.9053 22.5H3.6c-1.1579 0-2.1-.9421-2.1-2.1v-5.3052c0-1.1579.9421-2.1 2.1-2.1h5.3053c1.1578 0 2.1.9421 2.1 2.1V20.4c0 1.1579-.9422 2.1-2.1 2.1ZM3.6 14.5421a.5534.5534 0 0 0-.5526.5527V20.4c0 .3046.248.5526.5526.5526h5.3053a.5534.5534 0 0 0 .5526-.5526v-5.3052a.5534.5534 0 0 0-.5526-.5527H3.6ZM20.3999 22.5h-5.3053c-1.1578 0-2.1-.9421-2.1-2.1v-5.3052c0-1.1579.9422-2.1 2.1-2.1h5.3053c1.1579 0 2.1.9421 2.1 2.1V20.4c0 1.1579-.9421 2.1-2.1 2.1Zm-5.3053-7.9579a.5534.5534 0 0 0-.5526.5527V20.4c0 .3046.248.5526.5526.5526h5.3053a.5534.5534 0 0 0 .5526-.5526v-5.3052a.5534.5534 0 0 0-.5526-.5527h-5.3053Z" fill="#353B45"/></svg>
